X: 21436
T: Kevin Doyle's
R: hornpipe
M: 4/4
K: Gmajor
dBGB dBed|cBAG F2DE|FEFG A2fe|decd B2Bc|
dBGB dBed|^cdeg abag|fd^cd ed=cA|1 B2G2G2Bc:|2 B2G2G2z2||
d~g3 dgfg|d~g3 dc2B|A3B c3e|agfe d2Bc|
d~g3 dgfg|d~g3 d3B|cBAc BAGB|AG (3FGA G2 Bc|
dgbg egdB|cdeg a3g|(3fgf (3efe defe|(3ded cd B2Bc|
dBGB dBed|^cdeg abag|fd^cd ed=cA|B2G2G2||

